svgs/sharp-regular/align-right.svg

<svg xmlns="http://www.w3.org/2000/svg" viewBox="0 0 448 512"><!--! Font Awesome Pro 6.6.0 by @fontawesome - https://fontawesome.com License - https://fontawesome.com/license (Commercial License) Copyright 2024 Fonticons, Inc. --><path d="M424 40l24 0 0 48-24 0L184 88l-24 0 0-48 24 0 240 0zm0 128l24 0 0 48-24 0L24 216 0 216l0-48 24 0 400 0zm24 128l0 48-24 0-240 0-24 0 0-48 24 0 240 0 24 0zM424 424l24 0 0 48-24 0L24 472 0 472l0-48 24 0 400 0z"/></svg>

<svg xmlns="http://www.w3.org/2000/svg" viewBox="0 0 448 512"><!--! Font Awesome Pro 6.4.2 by @fontawesome - https://fontawesome.com License - https://fontawesome.com/license (Commercial License) Copyright 2023 Fonticons, Inc. --><path d="M424 40h24V88H424 184 160V40h24H424zm0 128h24v48H424 24 0V168H24 424zm24 128v48H424 184 160V296h24H424h24zM424 424h24v48H424 24 0V424H24 424z"/></svg>
